X:6
T:Bergers et barons
R:Branle
C:Trad.
H:XIII eme siecle
A:Alsace
O:France
Z:S. Piron
Z:Transcrit et/ou corrig par Michel BELLON - 2005-05-21
Z:Pour toute observation mailto:galouvielle@free.fr
M:6/8
L:1/8
Q:3/8=120
K:G
d|:Bdd Bde|d2B c2d|B3B zd|Bdd Bde|d2 Bc2d|B2B BAG|B3 B z B|d2d c2c|B3 B z d:||
%%footer $D   Galouvielle-MBe 2006 \nSarabande (France)
